resources/haticons/SVG/mobile_off.svg

<!-- Generated by IcoMoon.io -->
<svg version="1.1" xmlns="http://www.w3.org/2000/svg" width="24" height="24" viewBox="0 0 24 24">
<title>mobile_off</title>
<path d="M17.016 5.016h-9.188l-2.719-2.719q0.469-1.313 1.875-1.313h10.031q0.797 0 1.383 0.609t0.586 1.406v13.172l-1.969-2.016v-9.141zM6.984 18.984h9.75l-9.75-9.703v9.703zM2.766 2.484l19.219 19.219-1.266 1.266-1.734-1.734q-0.094 0.75-0.656 1.266t-1.313 0.516h-10.031q-0.797 0-1.383-0.609t-0.586-1.406v-13.734l-3.516-3.516z"></path>
</svg>

<svg xmlns="http://www.w3.org/2000/svg" width="24" height="24"><path d="M17.016 5.016H7.828L5.109 2.297Q5.578.984 6.984.984h10.031q.797 0 1.383.609t.586 1.406v13.172l-1.969-2.016V5.014zM6.984 18.984h9.75l-9.75-9.703v9.703zm-4.218-16.5l19.219 19.219-1.266 1.266-1.734-1.734q-.094.75-.656 1.266t-1.313.516H6.985q-.797 0-1.383-.609t-.586-1.406V7.268L1.5 3.752z"/></svg>
